!!!!SEGMENT: pl-stab--75a--002_rodowski-aleksander--missa-pastorales-gloria.krn
!!!cenid: 18xx:3405
!!!COM: Rodowski, Aleksander
!!!COM-rismID: pe30009627
!!!CDT: <1790->1810
!!!CNT: Polish
!!!OPR: Missa Pastorales
!!!OTL: Gloria
!!!OMV: 002
!!!PDT: 1850
!!!AGN:
!!!SMS-siglum: PL-STAb
!!!SMS-shelfmark: 75a
!!!SMS-shelfwork: 001-002 M
!!!SMS-variant: Partytura: PL-STAb 75a:3
!!!SMS-altvar: Canto: PL-STAb 75a:5, Organo: PL-STAb 75a:7-8
!!!NIFC-rismSourceID: 301050718
!!!NIFC-rismChildID: 301050718
!!!NIFC-islandoraID: pl-stab:4458
!!!URL-pdf-islandora: https://repozytorium.nifc.pl/islandora/object/pl-stab%3A4458/datastream/PDF/view
!!!URL-scan: https://polish.musicsources.pl/pl/lokalizacje/galeria/rekopisy/4548/3 @EN{Scan on Polish Music Sources Website} @PL{Skany w portalu Dziedzictwo Muzyki Polskiej w otwartym dostępie}
!!!IIIF:
!!!ONB-nifc: UWAGA: na podstawie partytury (s. 3-5, 10-11). W źródle znajdują się także głosy. Proszę o wypełnienie pól SMS:variant i SMS:altvar. UWAGA: części Mszy: 1. Kyrie, 2. Gloria, 3. Credo, 4. Et incarnatus, 5. Sanctus, 6. Benedictus, 7. Agnus Dei
!!!AIN: 1 organ 2 soprn
!!!key: C
**kern	**kern	**kern	**kern	**text
*part4	*part3	*part2	*part1	*part1
*staff4	*staff3	*staff2	*staff1	*staff1
*>[A,A,B,B,A]	*>[A,A,B,B,A]	*>[A,A,B,B,A]	*>[A,A,B,B,A]	*>[A,A,B,B,A]
*>A	*>A	*>A	*>A	*>A
*I"Organo	*	*I"Cant 2	*I"Cant 1.	*
*Iorgan	*	*Isoprn	*Isoprn	*
*ICklav	*	*ICvox	*ICvox	*
*clefF4	*clefG2	*clefF4	*clefG2	*
*k[]	*k[]	*k[]	*k[]	*
*C:	*C:	*C:	*C:	*
*M3/4	*M3/4	*M3/4	*M3/4	*
*all\right	*all\right	*all\right	*all\right	*
=1	=1	=1	=1	=1
*^	*	*	*	*
!	!	!	!LO:TX:t=P:problem=błędna nazwa głosu	!LO:TX:a:B:t=Allegro	!
4C 4CC/	4ryy	4cc 4c/	4C\	4c/	Glo-
8C\L	8CC\L	8cc\L	8C\	8c/	-ri-
8C\J	8CC\J	8cc\J	8C\	8c/	-a
!LO:N:vis=4	!	!	!LO:N:vis=4	!	!
8E 8EE\	4ryy	8ee\L	8E\	8e/	in
!LO:N:vis=4	!	!	!LO:N:vis=4	!	!
8G 8GG\	.	8gg\J	8G\	8g/	ex-
*v	*v	*	*	*	*
=2	=2	=2	=2	=2
*2\right	*2\right	*2\right	*2\right	*
2c 2C\	2ccc\	2c\	2cc\	-cel-
4G 4GG\	4gg\	4G\	4g/	-sis
=3	=3	=3	=3	=3
4E 4EE\	4ee\	4E\	4e/	De-
4C 4CC\	4cc\	4C\	4c/	-o
4r	4r	4r	4r	.
=4	=4	=4	=4	=4
*	*	*^	*	*
[2.G [2.C\	(16cc\LL	2.rEE	4G\	2.r	.
.	16b\	.	.	.	.
.	16cc\	.	.	.	.
.	16dd\JJ)	.	.	.	.
.	(16ee\LL	.	4c\	.	.
.	16dd\	.	.	.	.
.	16ee\	.	.	.	.
.	16ff\JJ	.	.	.	.
.	16gg\LL	.	4e\	.	.
.	16aa\	.	.	.	.
.	16gg\	.	.	.	.
.	16ff#X\JJ)	.	.	.	.
=5	=5	=5	=5	=5	=5
2.G] 2.C\]	(16gg\LL	2.rGG	4g\	2.r	.
.	16aa\	.	.	.	.
.	16gg\	.	.	.	.
.	16ff#X\JJ	.	.	.	.
*	*rep	*	*	*	*
.	16gg\LL	.	4rc	.	.
.	16aa\	.	.	.	.
.	16gg\	.	.	.	.
.	16ff#\JJ	.	.	.	.
*	*Xrep	*	*	*	*
*	*rep	*	*	*	*
.	16gg\LL	.	4rc	.	.
.	16aa\	.	.	.	.
.	16gg\	.	.	.	.
.	16ff#\JJ	.	.	.	.
*	*Xrep	*	*	*	*
!!LO:LB:g=original
=6	=6	=6	=6	=6	=6
2.G 2.C\	4.gg\)	4.g\	2.r	2.r	.
.	8ff#X\L	8f#X\L	.	.	.
.	8dd\	8d\	.	.	.
.	8ee\J	8e\J	.	.	.
=7	=7	=7	=7	=7	=7
2.G 2.GG\	8cc\L	4c\	2.r	2.r	.
.	8b\J	.	.	.	.
.	2g/	4rc	.	.	.
.	.	4rc	.	.	.
*	*	*v	*v	*	*
=8	=8	=8	=8	=8
[2.G [2.C\	(16cc\LL	2.r	2.r	.
.	16b\	.	.	.
.	16cc\	.	.	.
.	16dd\JJ	.	.	.
.	16ee\LL	.	.	.
.	16dd\	.	.	.
.	16ee\	.	.	.
.	16ffn\JJ)	.	.	.
.	(16gg\LL	.	.	.
.	16aa\	.	.	.
.	16gg\	.	.	.
.	16ff#X\JJ)	.	.	.
=9	=9	=9	=9	=9
2.G_ 2.C\_	(16gg\LL	2.r	2.r	.
.	16aa\	.	.	.
.	16gg\	.	.	.
.	16ff#X\JJ)	.	.	.
*	*rep	*	*	*
.	(16gg\LL	.	.	.
.	16aa\	.	.	.
.	16gg\	.	.	.
.	16ff#\JJ)	.	.	.
*	*Xrep	*	*	*
*	*rep	*	*	*
.	(16gg\LL	.	.	.
.	16aa\	.	.	.
.	16gg\	.	.	.
.	16ff#\JJ)	.	.	.
*	*Xrep	*	*	*
=10	=10	=10	=10	=10
2G] 2C\]	4.gg\	2.r	2.r	.
.	8ffn\L	.	.	.
4G 4GG\	8dd\	.	.	.
.	8b\J	.	.	.
=11	=11	=11	=11	=11
4G 4C\	8dd\L	2.r	2.r	.
.	8cc\J	.	.	.
4G 4C\	4cc\	.	.	.
!	!	!	!LO:TX:b:i:t=Finis	!
4r;	4r;	.	.	.
=12:|!|:	=12:|!|:	=12:|!|:	=12:|!|:	=12:|!|:
*>B	*>B	*>B	*>B	*>B
*	*	*^	*	*
4GG/	4g\	4GG/	2ryy	4g/	Glo-
8GG/L	8g\L	8GG/L	.	8g/L	-ri-
8GG/J	8g\J	8GG/J	.	8g/J	-a
8BB/L	8b\L	8BB\L	8BB/L	8b\L	in
8D/J	8dd\J	8D\J	8D/J	8dd\J	ex-
*	*	*v	*v	*	*
!!LO:LB:g=original
=13	=13	=13	=13	=13
2G 2GG\	2gg 2g\	2G\	2gg\	-cel-
4D 4DD\	4dd 4d\	4D\	4dd\	-sis
=14	=14	=14	=14	=14
4BB/	4b\	4BB/	4b\	de-
4GG/	4g\	4GG/	4g/	-[o]
4r	4r	4r	4r	.
=15	=15	=15	=15	=15
*	*	*^	*	*
!	!	!LO:CL:ed	!	!	!
*	*	*clefG2	*	*	*
8BL 8G\	8g/L	8g/L	2.rE	2.r	.
8D\	8b/J	8b/J	.	.	.
8B 8G\	4.dd\	4.dd\	.	.	.
8D\	.	.	.	.	.
8B 8G\	.	.	.	.	.
8D\J	8cc#X\	8cc#X\	.	.	.
=16	=16	=16	=16	=16	=16
8cL 8A 8F#X\	4a\	4a/	2.r	2.r	.
8D\	.	.	.	.	.
8c 8A 8F#\	8a\L	8a/L	.	.	.
8D\J	8b\J	8b/J	.	.	.
8BL 8G\	4g/	4g/	.	.	.
8D\J	.	.	.	.	.
=17	=17	=17	=17	=17	=17
8BL 8G\	8g\L	8g/L	2.r	2.r	.
8D\	8b\J	8b/J	.	.	.
8B 8G\	4.dd\	4.dd\	.	.	.
8D\	.	.	.	.	.
8B 8G\	.	.	.	.	.
8D\J	8cc#X\	8cc#X\	.	.	.
=18	=18	=18	=18	=18	=18
8cL 8A 8F#X\	4a\	2.r	4a/	2.r	.
8D\	.	.	.	.	.
8c 8A 8F#\	8a\L	.	8a/L	.	.
8D\J	8b\J	.	8b/J	.	.
8BL 8G\	4g/	.	4g/	.	.
8D\J	.	.	.	.	.
*	*	*v	*v	*	*
=19	=19	=19	=19	=19
[2.D [2.GG/	(8g\L	2.r	2.r	.
.	8b\	.	.	.
.	8dd\	.	.	.
.	8ee\	.	.	.
.	8cc\	.	.	.
.	8a\J)	.	.	.
=20	=20	=20	=20	=20
2.D_ 2.GG/_	(8g\L	2.r	2.r	.
.	8b\	.	.	.
.	8dd\	.	.	.
.	8cc\	.	.	.
.	8a\	.	.	.
.	8f#X\J)	.	.	.
=21	=21	=21	=21	=21
2.D] 2.GG/]	(8g\L	2.r	2.r	.
.	8b\	.	.	.
.	8dd\	.	.	.
.	8ee\	.	.	.
.	8cc\	.	.	.
.	8a\J)	.	.	.
=22	=22	=22	=22	=22
(8GG\L	(8g\L	2.r	2.r	.
16AA\L	16a\L	.	.	.
16BB\JJ	16b\JJ	.	.	.
16C\LL	16cc\LL	.	.	.
16D\	16dd\	.	.	.
16E\	16ee\	.	.	.
16F#X\JJ)	16ff#X\JJ)	.	.	.
!LO:TX:b:i:t=Da Capo al Fine	!	!	!	!
4G\	4gg\	.	.	.
=:|!	=:|!	=:|!	=:|!	=:|!
*-	*-	*-	*-	*-
!!!system-decoration: <(s1,s2)>{(s3,s4)}
!!!ENC: Filip Voros
!!!END: 2021-11-16
!!!ENC: Andrzej Kubiczek
!!!END: 2021-12-12
!!!YEC: Copyright 2022 Narodowy Instytut Fryderyka Chopina (https://polishscores.org)
!!!YEM: License CC-BY-4.0 (https://creativecommons.org/licenses/by/4.0)
